X:1
T:Title
%%score { ( 1 4 ) | ( 2 3 ) }
L:1/8
Q:1/4=92
M:6/8
K:G
V:1 treble nm="Grand Piano"
V:4 treble 
V:2 bass 
V:3 bass 
V:1
 [DB]cB ABA | [B,G]3 .[B,D]3 | DGB d2 B | [GB]3 .[GA]3 | [FA][FA][FB] .[Fc]3 | BBc .d3 | d>ed dBG | %7
w: J.~W.~Bischoff * * * * *|||||||
 [GB]3 .[FA]3 | z3 G3- | G6 | z3 d3- | d6 | z3 .A3 | B2 A .[B,G]3 |] %14
w: |||||||
V:2
 z E[G,D] [D,F,C][D,F,D][D,F,C] | [G,,G,]3 .[G,,G,]3 | %2
 [G,B,][K:treble][G,B,D][G,DG] [G,B,G]2 [G,DG] | [E,^C]3 .[E,C]3 | [D,D][D,C][D,B,] .[D,A,]3 | %5
 [G,G][G,G][G,A,G] .[G,B,G]3 | [G,B,G]>[G,CG][G,B,G] [G,G]-[G,DG][K:bass][G,B,] | [D,D]3 .[D,D]3 | %8
 z6 | [C,G,]>[C,F,][C,E,] .[G,,D,]3 | z6 | [G,D]>[G,C][G,B,] .[D,A,]3 | %12
 [B,,G,]>[B,,G,][B,,G,] [C,G,]2 [C,G,] | .[G,D]3 z3 |] %14
V:3
 .G,3 z3 | x6 | x[K:treble] x5 | x6 | x6 | x6 | z3 .B,3[K:bass] | x6 | x6 | x6 | x6 | x6 | x6 | %13
 D,2- [D,F,C] .[G,,G,]3 |] %14
V:4
 x6 | x6 | x6 | x6 | x6 | x6 | x6 | x6 | D>EF z3 | E>DC .B,3 | G>AB z3 | B>AG .F3 | %12
 [Dd]>[DB][DG] E-[EB][Ec] | x6 |] %14

